ui/public/images/guides/guide-alternant/tableau-de-suivi.svg

<svg width="222" height="175" viewBox="0 0 222 175" fill="none" xmlns="http://www.w3.org/2000/svg">
<g clip-path="url(#clip0_2_20326)">
<path d="M23.8961 173.806C23.8961 173.806 -37.7094 115.421 36.9152 38.3652C87.6089 -13.9806 188.663 -11.5858 213.386 38.3652C238.106 88.3163 201.766 174.63 201.766 174.63L23.8988 173.806H23.8961Z" fill="#F5F5FE"/>
<path d="M58.3545 173.896V25.6275C58.3545 25.1928 58.5478 24.8391 58.7894 24.8391H185.058C185.297 24.8391 185.493 25.1928 185.493 25.6275V173.896" fill="white"/>
<path d="M58.3545 173.896V25.6275C58.3545 25.1928 58.5478 24.8391 58.7894 24.8391H185.058C185.297 24.8391 185.493 25.1928 185.493 25.6275V173.896" stroke="#2E186A" stroke-linecap="round" stroke-linejoin="round"/>
<path d="M102.547 36.9888H70.0664V47.5184H102.547V36.9888Z" fill="#DFDFEF"/>
<path d="M138.517 36.9888H106.036V47.5184H138.517V36.9888Z" fill="#DFDFEF"/>
<path d="M174.487 36.9888H142.007V47.5184H174.487V36.9888Z" fill="#DFDFEF"/>
<path d="M102.547 50.7583H70.0664V61.2879H102.547V50.7583Z" fill="#DFDFEF"/>
<path d="M138.517 50.7583H106.036V61.2879H138.517V50.7583Z" fill="#DFDFEF"/>
<path d="M174.487 50.7583H142.007V61.2879H174.487V50.7583Z" fill="#E0840B"/>
<path d="M102.547 64.5278H70.0664V75.0575H102.547V64.5278Z" fill="#DFDFEF"/>
<path d="M138.517 64.5278H106.036V75.0575H138.517V64.5278Z" fill="#DFDFEF"/>
<path d="M174.487 64.5278H142.007V75.0575H174.487V64.5278Z" fill="#6A6AF4"/>
<path d="M102.547 78.2974H70.0664V88.827H102.547V78.2974Z" fill="#DFDFEF"/>
<path d="M138.517 78.2974H106.036V88.827H138.517V78.2974Z" fill="#DFDFEF"/>
<path d="M174.487 78.2974H142.007V88.827H174.487V78.2974Z" fill="#E0840B"/>
<path d="M102.547 92.0669H70.0664V102.597H102.547V92.0669Z" fill="#DFDFEF"/>
<path d="M138.517 92.0669H106.036V102.597H138.517V92.0669Z" fill="#DFDFEF"/>
<path d="M174.487 92.0669H142.007V102.597H174.487V92.0669Z" fill="#DFDFEF"/>
<path d="M102.547 105.836H70.0664V116.366H102.547V105.836Z" fill="#DFDFEF"/>
<path d="M138.517 105.836H106.036V116.366H138.517V105.836Z" fill="#DFDFEF"/>
<path d="M174.487 105.836H142.007V116.366H174.487V105.836Z" fill="#E0840B"/>
<path d="M102.547 119.606H70.0664V130.136H102.547V119.606Z" fill="#DFDFEF"/>
<path d="M139.859 120.956H107.379V131.486H139.859V120.956Z" fill="#DFDFEF"/>
<path d="M174.487 119.606H142.007V130.136H174.487V119.606Z" fill="#E0840B"/>
<path d="M102.547 133.375H70.0664V143.905H102.547V133.375Z" fill="#DFDFEF"/>
<path d="M138.517 133.375H106.036V143.905H138.517V133.375Z" fill="#DFDFEF"/>
<path d="M174.487 133.375H142.007V143.905H174.487V133.375Z" fill="#6A6AF4"/>
<path d="M102.547 147.145H70.0664V157.675H102.547V147.145Z" fill="#DFDFEF"/>
<path d="M138.517 147.145H106.036V157.675H138.517V147.145Z" fill="#DFDFEF"/>
<path d="M174.487 147.145H142.007V157.675H174.487V147.145Z" fill="#DFDFEF"/>
<path d="M196.555 148.662C196.281 148.427 196.141 148.071 196.179 147.712C196.944 140.762 200.095 133.608 205.013 130.983C210.065 128.286 213.514 135.773 206.508 142.731C201.236 147.966 198.423 148.819 197.352 148.919C197.062 148.946 196.775 148.851 196.555 148.662Z" fill="#FF8D7E"/>
<path d="M209.112 131.602C209.112 131.602 200.269 140.409 196.731 148.406" stroke="#2E186A" stroke-linecap="round" stroke-linejoin="round"/>
<path d="M207.544 141.157C207.544 141.157 203.91 141.032 199.993 142.733" stroke="#2E186A" stroke-linecap="round" stroke-linejoin="round"/>
<path d="M203.306 132.471C203.306 132.471 198.88 140.357 199.205 143.743" stroke="#2E186A" stroke-linecap="round" stroke-linejoin="round"/>
<path d="M203.11 145.46C203.11 145.46 199.795 145.336 197.634 146.672" stroke="#2E186A" stroke-linecap="round" stroke-linejoin="round"/>
<path d="M190.308 142.307C189.93 142.566 189.498 142.612 189.157 142.426C182.561 138.818 176.999 132.088 176.911 124.819C176.82 117.349 186.142 115.783 189.508 127.357C192.04 136.067 191.436 139.982 190.982 141.386C190.859 141.767 190.614 142.096 190.308 142.307Z" fill="#FF8D7E"/>
<path d="M189.885 142.525C189.885 142.525 187.198 124.323 179.478 120.173" stroke="#2E186A" stroke-linecap="round" stroke-linejoin="round"/>
<path d="M177.295 125.94C178.986 126.696 185.004 129.493 187.299 132.001" stroke="#2E186A" stroke-linecap="round" stroke-linejoin="round"/>
<path d="M189.125 127.268C189.364 129.833 189.603 134.301 188.537 135.703" stroke="#2E186A" stroke-linecap="round" stroke-linejoin="round"/>
<path d="M188.893 138.484C188.893 138.484 182.95 136.459 180.279 134.31" stroke="#2E186A" stroke-linecap="round" stroke-linejoin="round"/>
<path d="M191.58 153.258C191.58 153.258 190.064 147.801 185.449 147.407" stroke="#2E186A" stroke-linecap="round" stroke-linejoin="round"/>
<path d="M186.191 145.55C186.328 144.542 186.172 143.688 185.842 143.643C185.511 143.597 185.132 144.376 184.994 145.384C184.856 146.391 185.012 147.245 185.342 147.291C185.673 147.337 186.053 146.557 186.191 145.55Z" fill="#E0840B"/>
<path d="M185.343 147.298C185.537 147.058 185.109 146.386 184.388 145.796C183.667 145.206 182.925 144.922 182.731 145.162C182.538 145.401 182.966 146.074 183.687 146.663C184.408 147.253 185.15 147.537 185.343 147.298Z" fill="#E0840B"/>
<path d="M187.248 146.919C188.147 146.452 188.751 145.832 188.598 145.534C188.445 145.236 187.592 145.373 186.694 145.839C185.796 146.306 185.191 146.926 185.345 147.224C185.498 147.522 186.35 147.386 187.248 146.919Z" fill="#E0840B"/>
<path d="M184.118 148.597C184.936 148.153 185.481 147.572 185.335 147.301C185.189 147.029 184.408 147.169 183.59 147.614C182.772 148.058 182.228 148.639 182.373 148.91C182.519 149.182 183.301 149.042 184.118 148.597Z" fill="#E0840B"/>
<path d="M186.749 150.369C187.028 150.239 186.937 149.446 186.547 148.598C186.156 147.749 185.614 147.167 185.335 147.296C185.057 147.426 185.148 148.219 185.538 149.067C185.929 149.916 186.471 150.498 186.749 150.369Z" fill="#E0840B"/>
<path d="M200.493 125.697C200.493 125.697 189.814 134.188 194.557 153.476" stroke="#2E186A" stroke-linecap="round" stroke-linejoin="round"/>
<path d="M201.919 124.783C202.596 123.616 202.684 122.4 202.116 122.066C201.547 121.732 200.537 122.407 199.86 123.574C199.183 124.741 199.095 125.957 199.663 126.291C200.231 126.625 201.241 125.95 201.919 124.783Z" fill="#E0840B"/>
<path d="M201.961 127.422C203.304 127.395 204.382 126.837 204.369 126.175C204.356 125.513 203.257 124.998 201.914 125.025C200.571 125.052 199.493 125.61 199.506 126.272C199.519 126.934 200.618 127.449 201.961 127.422Z" fill="#E0840B"/>
<path d="M199.5 126.299C199.968 125.942 199.761 124.873 199.036 123.912C198.312 122.95 197.345 122.46 196.878 122.817C196.41 123.173 196.617 124.242 197.342 125.203C198.066 126.165 199.033 126.655 199.5 126.299Z" fill="#E0840B"/>
<path d="M200.366 128.23C200.863 127.132 200.832 126.043 200.298 125.799C199.763 125.555 198.927 126.247 198.431 127.345C197.935 128.443 197.965 129.531 198.5 129.776C199.034 130.02 199.87 129.328 200.366 128.23Z" fill="#E0840B"/>
<path d="M198.675 127.214C199.752 127.099 200.579 126.576 200.523 126.045C200.467 125.514 199.549 125.177 198.473 125.291C197.397 125.406 196.57 125.929 196.626 126.46C196.681 126.991 197.599 127.328 198.675 127.214Z" fill="#E0840B"/>
<path d="M204.444 154.454L199.986 174.538H185.815L181.356 154.454C181.101 153.306 181.821 152.178 182.811 152.178H202.99C203.98 152.178 204.699 153.303 204.444 154.454Z" fill="white" stroke="#2E186A" stroke-linecap="round" stroke-linejoin="round"/>
<path d="M22.8946 120.254L90.7385 120.753C91.8176 120.761 92.7974 121.391 93.2591 122.371L115.139 167.494L158.075 167.535C158.075 167.535 159.033 173.858 151.023 174.249L118.366 174.144L118.46 174.336L43.7546 174.074L20.3338 124.288C19.4479 122.403 20.825 120.238 22.8973 120.251L22.8946 120.254Z" fill="#6A6AF4"/>
<path d="M48.6237 173.396L25.5545 124.288C24.6686 122.403 26.0457 120.238 28.118 120.251" stroke="white" stroke-linecap="round" stroke-linejoin="round"/>
<path d="M108.001 165.353L51.8961 165.067C49.9285 165.056 48.1354 163.925 47.2737 162.146L30.3758 126.142C29.651 124.666 30.7784 122.967 32.4749 122.981L88.0783 123.391C88.9614 123.397 89.764 123.891 90.1452 124.66L109.703 162.632C110.318 163.893 109.4 165.364 108.004 165.356L108.001 165.353Z" fill="white"/>
<path d="M62.123 174.212H30.2251V173.118C30.2251 169.911 32.8155 167.305 36.0045 167.305H56.3437C59.5327 167.305 62.123 169.911 62.123 173.118V174.212Z" fill="#E0840B"/>
<path d="M20.8086 174.279H201.733" stroke="#2E186A" stroke-linecap="round" stroke-linejoin="round"/>
</g>
<defs>
<clipPath id="clip0_2_20326">
<rect width="222" height="175" fill="white"/>
</clipPath>
</defs>
</svg>

<svg xmlns="http://www.w3.org/2000/svg" width="222" height="175" fill="none" viewBox="0 0 222 175"><g clip-path="url(#a)"><path fill="#f5f5fe" d="M23.896 173.806s-61.605-58.385 13.02-135.44c50.693-52.347 151.747-49.952 176.47 0 24.72 49.95-11.62 136.264-11.62 136.264l-177.867-.824z"/><path fill="#fff" d="M58.355 173.896V25.628c0-.435.193-.789.434-.789h126.269c.239 0 .435.354.435.789v148.268"/><path stroke="#2e186a" stroke-linecap="round" stroke-linejoin="round" d="M58.355 173.896V25.628c0-.435.193-.789.434-.789h126.269c.239 0 .435.354.435.789v148.268"/><path fill="#dfdfef" d="M102.547 36.989h-32.48v10.53h32.48zM138.517 36.989h-32.481v10.53h32.481zM174.487 36.989h-32.48v10.53h32.48zM102.547 50.758h-32.48v10.53h32.48zM138.517 50.758h-32.481v10.53h32.481z"/><path fill="#e0840b" d="M174.487 50.758h-32.48v10.53h32.48z"/><path fill="#dfdfef" d="M102.547 64.528h-32.48v10.53h32.48zM138.517 64.528h-32.481v10.53h32.481z"/><path fill="#6a6af4" d="M174.487 64.528h-32.48v10.53h32.48z"/><path fill="#dfdfef" d="M102.547 78.297h-32.48v10.53h32.48zM138.517 78.297h-32.481v10.53h32.481z"/><path fill="#e0840b" d="M174.487 78.297h-32.48v10.53h32.48z"/><path fill="#dfdfef" d="M102.547 92.067h-32.48v10.53h32.48zM138.517 92.067h-32.481v10.53h32.481zM174.487 92.067h-32.48v10.53h32.48zM102.547 105.836h-32.48v10.53h32.48zM138.517 105.836h-32.481v10.53h32.481z"/><path fill="#e0840b" d="M174.487 105.836h-32.48v10.53h32.48z"/><path fill="#dfdfef" d="M102.547 119.606h-32.48v10.53h32.48zM139.859 120.956h-32.48v10.53h32.48z"/><path fill="#e0840b" d="M174.487 119.606h-32.48v10.53h32.48z"/><path fill="#dfdfef" d="M102.547 133.375h-32.48v10.53h32.48zM138.517 133.375h-32.481v10.53h32.481z"/><path fill="#6a6af4" d="M174.487 133.375h-32.48v10.53h32.48z"/><path fill="#dfdfef" d="M102.547 147.145h-32.48v10.53h32.48zM138.517 147.145h-32.481v10.53h32.481zM174.487 147.145h-32.48v10.53h32.48z"/><path fill="#ff8d7e" d="M196.555 148.662a1.1 1.1 0 0 1-.376-.95c.765-6.95 3.916-14.104 8.834-16.729 5.052-2.697 8.501 4.79 1.495 11.748-5.272 5.235-8.085 6.088-9.156 6.188a1.07 1.07 0 0 1-.797-.257"/><path stroke="#2e186a" stroke-linecap="round" stroke-linejoin="round" d="M209.112 131.602s-8.843 8.807-12.381 16.804"/><path stroke="#2e186a" stroke-linecap="round" stroke-linejoin="round" d="M207.544 141.157s-3.634-.125-7.551 1.576M203.306 132.471s-4.426 7.886-4.101 11.272M203.11 145.46s-3.315-.124-5.476 1.212"/><path fill="#ff8d7e" d="M190.308 142.307c-.378.259-.81.305-1.151.119-6.596-3.608-12.158-10.338-12.246-17.607-.091-7.47 9.231-9.036 12.597 2.538 2.532 8.71 1.928 12.625 1.474 14.029-.123.381-.368.71-.674.921"/><path stroke="#2e186a" stroke-linecap="round" stroke-linejoin="round" d="M189.885 142.525s-2.687-18.202-10.407-22.352"/><path stroke="#2e186a" stroke-linecap="round" stroke-linejoin="round" d="M177.295 125.94c1.691.756 7.709 3.553 10.004 6.061M189.125 127.268c.239 2.565.478 7.033-.588 8.435M188.893 138.484s-5.943-2.025-8.614-4.174M191.58 153.258s-1.516-5.457-6.131-5.851"/><path fill="#e0840b" d="M186.191 145.55c.137-1.008-.019-1.862-.349-1.907-.331-.046-.71.733-.848 1.741-.138 1.007.018 1.861.348 1.907.331.046.711-.734.849-1.741"/><path fill="#e0840b" d="M185.343 147.298c.194-.24-.234-.912-.955-1.502s-1.463-.874-1.657-.634c-.193.239.235.912.956 1.501.721.59 1.463.874 1.656.635"/><path fill="#e0840b" d="M187.248 146.919c.899-.467 1.503-1.087 1.35-1.385s-1.006-.161-1.904.305c-.898.467-1.503 1.087-1.349 1.385s1.005.162 1.903-.305M184.118 148.597c.818-.444 1.363-1.025 1.217-1.296s-.927-.132-1.745.313c-.818.444-1.362 1.025-1.217 1.296s.928.132 1.745-.313"/><path fill="#e0840b" d="M186.749 150.369c.279-.13.188-.923-.202-1.771-.391-.849-.933-1.431-1.212-1.302-.278.13-.187.923.203 1.771.391.849.933 1.431 1.211 1.302"/><path stroke="#2e186a" stroke-linecap="round" stroke-linejoin="round" d="M200.493 125.697s-10.679 8.491-5.936 27.779"/><path fill="#e0840b" d="M201.919 124.783c.677-1.167.765-2.383.197-2.717s-1.579.341-2.256 1.508-.765 2.383-.197 2.717 1.578-.341 2.256-1.508"/><path fill="#e0840b" d="M201.961 127.422c1.343-.027 2.421-.585 2.408-1.247s-1.112-1.177-2.455-1.15-2.421.585-2.408 1.247 1.112 1.177 2.455 1.15"/><path fill="#e0840b" d="M199.5 126.299c.468-.357.261-1.426-.464-2.387-.724-.962-1.691-1.452-2.158-1.095-.468.356-.261 1.425.464 2.386.724.962 1.691 1.452 2.158 1.096"/><path fill="#e0840b" d="M200.366 128.23c.497-1.098.466-2.187-.068-2.431-.535-.244-1.371.448-1.867 1.546s-.466 2.186.069 2.431c.534.244 1.37-.448 1.866-1.546"/><path fill="#e0840b" d="M198.675 127.214c1.077-.115 1.904-.638 1.848-1.169s-.974-.868-2.05-.754c-1.076.115-1.903.638-1.847 1.169.055.531.973.868 2.049.754"/><path fill="#fff" stroke="#2e186a" stroke-linecap="round" stroke-linejoin="round" d="m204.444 154.454-4.458 20.084h-14.171l-4.459-20.084c-.255-1.148.465-2.276 1.455-2.276h20.179c.99 0 1.709 1.125 1.454 2.276"/><path fill="#6a6af4" d="m22.895 120.254 67.844.499a2.81 2.81 0 0 1 2.52 1.618l21.88 45.123 42.936.041s.958 6.323-7.052 6.714l-32.657-.105.094.192-74.705-.262-23.421-49.786c-.886-1.885.491-4.05 2.563-4.037z"/><path stroke="#fff" stroke-linecap="round" stroke-linejoin="round" d="m48.624 173.396-23.07-49.108c-.885-1.885.492-4.05 2.564-4.037"/><path fill="#fff" d="m108.001 165.353-56.105-.286a5.17 5.17 0 0 1-4.622-2.921l-16.898-36.004c-.725-1.476.402-3.175 2.099-3.161l55.603.41a2.32 2.32 0 0 1 2.067 1.269l19.558 37.972c.615 1.261-.303 2.732-1.699 2.724z"/><path fill="#e0840b" d="M62.123 174.212H30.225v-1.094c0-3.207 2.59-5.813 5.78-5.813h20.339c3.189 0 5.779 2.606 5.779 5.813z"/><path stroke="#2e186a" stroke-linecap="round" stroke-linejoin="round" d="M20.809 174.279h180.924"/></g><defs><clipPath id="a"><path fill="#fff" d="M0 0h222v175H0z"/></clipPath></defs></svg>
